!!!OTL: 105. Skotshne
!!!Genre:	Skotshne
!!!Mode:	Altered Dorian
!!!Listening/dance:	dance
!!!One_Mode:	yes
**kern
*part1
*staff1
*clefG2
*k[b-]
*g:dor
*M2/4
=1-
*>A
(<8qa/
16gLL)
16f#X
16g
16aJJ
8b-L
8ddJ
=2
8.cc#XL
16eeJk
16ddLL
16cc#
16b-
16aJJ
=3
8gL
16ggL
16ffJJ
(>8qff/
16eeLL)
16dd
16ee
16ffJJ
=4
8dd
8r
4gg^
=5
(>16ggLL
16aaJ
8ffJ)
(>16ffLL
16ggJ
8eeJ)
=6
(>16eeLL
16ffJ
8ddJ)
(>16ddLL
16eeJ
8cc#XJ)
=7
(>8qee/
16ddLL)
16cc#X
16dd
16eeJJ
16ffLL
16ee
16dd
16cc#JJ
=8
(>8qee/
4.dd)
8bn
=9
16ccnLL
16bn
16cc
16bJJ
16ffLL
16ee
16dd
16cc#XJJ
=10
16ddLL
16cc#X
16b-X
16aJJ
4g
=11
16gLL
16dd
16cc#X
16b-JJ
16aLL
16g
16a
16b-JJ
*>A1
=12
4.g
8r
*>A2
=13:|!
4g
16r
16gLL
16b-
16ddJJ
=14!|:
*>B
[4gg
16ggLL]
16ff
16ee
16ddJJ
=15
16eeLL
16ffJ
8ddJ
8r
8dd
=16
16ggLL
16dd
16gg
16ddJJ
16ggLL
16ff
16ee
16ddJJ
=17
16eeLL
16ffJ
8ddJ
8r
8bn
=18
8.bnL
16ddJk
(>16ddLL
16ccn)
(>16cc
16bJJ)
=19
8.bnL
16ffJk
(>16ffLL
16ee)
(>16ee
16ddJJ)
=20
(>8qee/
16ddLL)
16cc#X
16dd
16eeJJ
16ffLL
16ee
16dd
16cc#JJ
=21
(>8qee/
4.dd)
8bn
=22
16ccnLL
16bn
16cc
16bJJ
16ffLL
16ee
16dd
16cc#XJJ
=23
(>8qee/
16ddLL)
16cc#X
16b-X
16aJJ
4g
=24
16gLL
16dd
16cc#X
16b-JJ
16aLL
16g
16a
16b-JJ
=25
2g
=:|!
*-
